X: 251
T: The Shepherd
B: O'Neill's 251
N: "Moderate"
N: "Collected by J.O'neill"
Z: 1997 by John Chambers <jc@trillian.mit.edu>
M: C
L: 1/8
K:G
B>A \
| G3F E2(Bd) | (ed)Bd e2(eg) | (dc)(BA) G2B2 | (cBAG) A2B>A |
| G3F E2(Bd) | (ed)Bd e2f2 | (g>ag).f (e>fg).c | B2(A>G) G2 ||
|| d2 \
| g3a g2G2 | (Bcde) (edcB) | (Bdgb) (bagb) | (agab) a2(g>a) |
| {ga}b3a g2fd | .B.d.f.a g2e>f | (g>ag).f (e>fg).c | B2(A>G) G2 ||


